X:1
T:Es Ist Vollbracht, 88.99.10.8
T:Es Ist Vollbracht, 88.99.10.8
T:Johann Anastasius Freylinghausen, 1713
T:Public Domain Courtesy of the Cyber Hymnal™
C:Johann Anastasius Freylinghausen, 1713
Z:Public Domain
Z:Courtesy of the Cyber Hymnal™
%%score ( 1 2 ) ( 3 4 )
L:1/8
Q:1/4=110
M:4/4
K:C
V:1 treble 
V:2 treble 
V:3 bass 
V:4 bass 
V:1
 z2 [EA]2 c2 z x3 | !fermata![CA]2 [CE]2 [B,D]2 [B,E]2 | [A,C]4 z2 [Ec]2 | %3
 [EB]2 [Ec]2 [CA]2 [Cc]2 | [FB]2 [FA]2 [E^G]4 x | z2 [EB]2 [Ec]2 [DA]2 | %6
 [DB]2 [CA]2 [B,^F]2 [B,G]2 | [B,^F]4 [B,E]4 | z2 [B,^G]2 [EA]2 [DB]2 | [Ec]2 [Fd]2 [DB]2 [Ec]2 | %10
 c2 B2 [Ec]4 | z2 [DG]2 [CE]2 C2 | [CG]2 [DG]2 [EA]2 [Ec]2 | [FB]2 [FA]2 [E^G]4 x | %14
 z2 [EB]2 [Ec]2 [Gd]2 | [Ge]2 [FA]2 [Ac]2 [^GB]2 x | A8 |] %17
V:2
 x4 E3 B2 D | x8 | x8 | x8 | x9 | x8 | x8 | x8 | x8 | x8 | D4 x4 | x6 C2 | x8 | x9 | x8 | x9 | %16
 A8 |] %17
V:3
 z2 [A,C]2 A,2 [E,^G,]2 x2 | [A,,A,]2 [A,,A,]2 [F,A,]2 [E,^G,]2 | [A,,E,]4 z2 A,2 | %3
 [E,^G,]2 [C,A,]2 [F,A,]2 [E,A,]2 | D3 z C [E,B,]4 | z2 [E,^G,]2 [C,A,]2 [D,^F,]2 | %6
 [G,,G,]2 [A,,E,]2 [B,,^D,]2 E,2- | E,2 ^D,2 [E,,^G,]4 | z2 E,2 [C,E,]2 [B,,^G,]2 | %9
 [A,,A,]2 [F,A,]2 [F,G,]2 G,2 | G,4 [C,G,]4 | z2 [B,,G,]2 [C,G,]2 [F,A,]2 | %12
 [E,G,]2 [B,,G,]2 [C,C]2 [A,,C]2 | D3 z C [E,B,]4 | z2 [E,^G,]2 A,2 [G,B,]2 | %15
 [C,C]2 [F,C]2 E3 z D | [A,,^C]8 |] %17
V:4
 x4 A,2 x4 | x8 | x6 A,2 | x8 | D,2 D,2 x5 | x8 | x8 | B,,4 x4 | x2 E,2 x4 | x6 E,F, | G,4 x4 | %11
 x8 | x8 | D,2 D,2 x5 | x4 A,2 x2 | x4 E,2 E,,2 x | x8 |] %17

